X: 820
T: Reelfoot Reel
C:Bill Monroe
B: jims roots
M:C|
L:1/8
R: Reel
Q: 1/4=100
K:D
V:1 
A,B, |: {C}"D"D2D2D2D2 | DFAc d2A[FA] | {C}D2D2 DEDB, | "C"A,=CEC A,CEC |
{C}"D"D2D2D2D2 | DFAc dAFA | dAFD "G"GBAG | [1 "A"FDEC "D"D2(3A,B,C :|[2 "A"FDEF "D"D2FE |]
|: "D"DFAc y{c}ddde | {e}fffa fece  | {c}dddB AFDB, | "C"A,=CEG "D"FAFA |
"D"DFAc y{c}ddde | {e}fffa fece  | {c}dddB AFDB, | "C"A,=CEF "D"D2FE :|
% abcbook-tune_id 6298c2799f7a2b4b3281e461


% abcbook-boost 0
% abcbook-tablature 
% abcbook-transpose 
% abcbook-lastupdated 1654178426855
% abcbook-soundfonts 
% abcbook-repeats 1


